X: 11
T: Navvy on the Line
R: hornpipe
M: 4/4
L: 1/8
K: G
   Bc \
| "G"dg fe "D7"dc BA | "G"GB DG B2 (3BAG \
| "D7"FA DF A2 (3AGF | "G"GB DG B2 Bc |
| "G"dg fe "D7"dc BA | "G"GB DG B2 (3BAG \
| "D7"FG AB cd ef | "G"g2 G2 G2 :|
|: AG \
| "D7"FA DF A2 (3AGF | "G"GB DG B2 (3BAG \
| "D7"FA DF A2 (3AGF | "G"GD EF "D7"GA Bc ||
| "G"dg fe "D7"dc BA | "G"GB DG B2 (3BAG \
| "D7"FG AB cd ef | "G"g2 G2 G2 :|
%%sep 2 1 500
